package/converter/svg/thin/input-numeric.svg

<svg xmlns="http://www.w3.org/2000/svg" viewBox="0 0 640 512"><!-- Font Awesome Pro 6.0.0-alpha2 by @fontawesome - https://fontawesome.com License - https://fontawesome.com/license (Commercial License) --><path d="M576.002 64H63.998C28.654 64 0 92.652 0 128V384C0 419.346 28.654 448 63.998 448H576.002C611.346 448 640 419.348 640 384V128C640 92.654 611.346 64 576.002 64ZM624 384C624 410.467 602.469 432 576.002 432H63.998C37.531 432 16 410.467 16 384V128C16 101.533 37.531 80 63.998 80H576.002C602.469 80 624 101.533 624 128V384ZM336 328H258.328L321.438 259.922C336.531 243.656 340.359 220.859 331.453 200.422C322.719 180.422 303.906 168 282.359 168C264.438 168 247.531 179.266 238.234 197.422C236.219 201.344 237.781 206.172 241.719 208.188C245.609 210.172 250.437 208.641 252.484 204.703C259.125 191.734 270.297 184 282.375 184C297.453 184 310.641 192.75 316.781 206.812C321.75 218.203 322.5 235.266 309.719 249.047L234.141 330.562C231.969 332.906 231.391 336.281 232.672 339.187C233.938 342.125 236.812 344 240 344H336C340.422 344 344 340.406 344 336S340.422 328 336 328ZM176 328H152V176C152 171.578 148.422 168 144 168H112C107.578 168 104 171.578 104 176S107.578 184 112 184H136V328H112C107.578 328 104 331.594 104 336S107.578 344 112 344H176C180.422 344 184 340.406 184 336S180.422 328 176 328Z"/></svg>

<svg xmlns="http://www.w3.org/2000/svg" viewBox="0 0 640 512"><!--! Font Awesome Pro 6.6.0 by @fontawesome - https://fontawesome.com License - https://fontawesome.com/license (Commercial License) Copyright 2024 Fonticons, Inc. --><path d="M576 80c26.5 0 48 21.5 48 48l0 256c0 26.5-21.5 48-48 48L64 432c-26.5 0-48-21.5-48-48l0-256c0-26.5 21.5-48 48-48l512 0zM64 64C28.7 64 0 92.7 0 128L0 384c0 35.3 28.7 64 64 64l512 0c35.3 0 64-28.7 64-64l0-256c0-35.3-28.7-64-64-64L64 64zm40 112c0 4.4 3.6 8 8 8l24 0 0 144-24 0c-4.4 0-8 3.6-8 8s3.6 8 8 8l64 0c4.4 0 8-3.6 8-8s-3.6-8-8-8l-24 0 0-152c0-4.4-3.6-8-8-8l-32 0c-4.4 0-8 3.6-8 8zm154.5 22.3c12.3-14.7 34.2-16.4 48.7-3.8c14.1 12.4 15.6 33.8 3.3 48L234 330.8c-2.1 2.4-2.5 5.7-1.2 8.6s4.1 4.7 7.3 4.7l96 0c4.4 0 8-3.6 8-8s-3.6-8-8-8l-78.5 0 65.1-75.1c18.1-20.8 15.9-52.4-4.9-70.5c-21.2-18.5-53.5-16-71.5 5.6l-12.4 14.9c-2.8 3.4-2.4 8.4 1 11.3s8.4 2.4 11.3-1l12.4-14.9z"/></svg>
